X:15416
T:Sidlaw Hills
R:March
R:Strathspey
O:Scotland
M:4/4
C:J. Watson
K:A
e2|\
a>b a>f e<c B>A|A<c B>A F2E2|\
A2A2 a2e>d|c2A2 B3e|\
a>b a>f e<c B>A|A<c B>A F2E2 |
A2A2 a2e>c | B2A2 A2 :: ce|\
f>e c<e a>e c<e | f>e c<e f2e2 |
a>e c<e f>e c<e | f<a e>c B2e2|\
a>b a>f e<c B>A | A<c B>A F2E2 |\
A2A2 a2e>c | B2A2 A2:|
